X: 2062
T: Rag O Muffin Scottische
B: kameruka bush dance
B: to learn
M:4/4
Q: 1/4=100
K:D
V:1 
fg|"D"(3AAA A>B A>F G>A|"G"(3BBB B>=c B2 ^c>B|"A"A>B c>d f>e B>c|"D"d>e (3dcB  "A"A2 F>G|
"D"(3AAA A>B A>F G>A|"G"(3BBB B>=c B2 ^c>B|"A"A>B c>d f>e B>c|"D"d2"A"f2"D"d2 F>G|
"D"A>f d>A F2 G2|"D"A>f d>a F2 G2|"A"A>B c>d f>e B>c|"D"d>e (3dcb "A"A2 F>G|
"D"A>f d>A F2 G2|"D"A>f d>A F2 G2|"A"A>B c>d f>e B>c|  "D"d2"A"f2"D"d4||
W: 
% abcbook-tune_id 6343f15f611190062a2304da


% abcbook-boost 0
% abcbook-tablature 
% abcbook-transpose 
% abcbook-lastupdated 1666010114367
% abcbook-soundfonts 
% abcbook-repeats 3


